!!!Genre:	Mazltov (Dobranotsh)
!!!Mode:	Minor
!!!Listening/dance:	listening
!!!:	*B-:
!!!One_Mode:	no
!!!Orig_tonic: G
**kern
*I"P1
*clefG2
*k[b-e-]
*g:
*M2/4
*>A
=1
(16qqdd/LL
16qqeen/
16qqff#X/JJ
8ggL)
8gJ
4b-
=2
16.aLL
32dk
16.f#X
32gJJk
4g
=3
16gLL
16a
16b-
16ccJJ
16ddLL
16ee-
16cc
16ee-JJ
=4
4.dd
(16qqcc/LL
16qqdd/JJ
16ccLL)
16b-JJ
=5
16ddLL
(16gg
16bb-)
16ggJJ
16ccLL
(16gg
16aa)
16ccJJ
=6
(16b-LL
16dd)
16ff
16ddJJ
(8.ccTL
48b-LL
48a
48b-JJJ)
=7
(16b-LL
16ddJ)
24ffL
24een
24ddJJ
24ddLL
24cc#X
24b-
24b-
24a
24gJJ
=8
4g
4G
=9:|!|:
*>B
(16ddLL
16ggJ)
24bb-L
24aa
24ggJJ
4gg
=10
(16ggLL
16bb-J)
24dddL
24ccc#X
24bb-JJ
4bb-
=11
(16bb-LL
16dddJ)
24fffL
24eeen
24dddJJ
(24dddLL
24ccc#X
24bb-J
8dddJ)
=12
24dddLL
24ccc#X
24bb-J
24bb-L
24aa
24ggJJ
4ddd
=13
(16ddLL
16ggJ)
24bb-L
24aa
24ggJJ
4gg
=14
(16ggLL
16bb-J)
24dddL
24ccc#X
24bb-JJ
4bb-
=15
(16bb-LL
16dddJ)
24fffL
24eeen
24dddJJ
24dddLL
24ccc#X
24bb-J
8dddJ
=16
32dddLLL
32ccc#XJ
16bb-J
32bb-LL
32aaJ
16ggJJ
8..ggL
32ddJkk
=:|!
32dddLLL
32ccc#XJ
16bb-J
32bb-LL
32aaJ
16ggJJ
16r
=17||
*>C
16fLL
16b-
16ddJJ
*>bM
*g:
=31
*>D
(16dd-XLL
16cc)
((8qeen/
16dd-)
16ccJJ)
(16dd-LL
16ff)
(16eeX
16dd-JJ)
=32
16dd-XLL
16ccJJ
4cct
(8qcc/
16b-LL)
16aJJ
=33
((8qcc/
16b-LL)
16a)
((8qcc/
16b-)
16aJJ)
(16b-LL
16cc)
(16f
16a-XJJ)
=34
4g
4gg
=35
(24bb-LL
24aa
24aa-X
24gg
24ff#X
24ffnJJ
32eenLLL
32ee-X
32dd
32cc#XJJ
32ccnLL
32bn
32b-X)
32aJJJ
=36
(16b-LL
16dd)
(16ff
16ddJJ)
(8ccTL
24b-L
24a
24b-JJ)
=37
(16b-LL
16ddJ)
24ffL
24een
24ddJJ
(24ddLL
24cc#X
24b-J
24b-L
24a
24gJJ)
=38
4.g
8ccn
=39:|!
8g
8d 8cc 8ff#X
8G 8d 8b- 8gg
8r
==
*-
